X: 408
T: The Fairy Rath
N:"Playful"
N:Irish title: an ra.t si.de
B:O'Neill's 408
Z:Transcribed by henrik.norbeck@mailbox.swipnet.se
M:6/8
L:1/8
K:G
(B/A/) | .G(A/G/)(E/D/) .D(dc) (B3/2A/G/E/) | .G(A/G/E/D/) (DEG) (A3/2c/B/A/) |
(G/B/A/G/E/D/) .D(dc) (B3/2A/G/E/) | (GA/G/E/D/) EGG G2 ||
(B/c/) | .d(e/d/B/A/) GBd (e3/2g/f/e/) | .d(e/d/B/A/) G(dB) (A3/2c/B/A/) |
(GA/G/E/D/) D(dc) (B3/2A/G/E/) | (GA/G/E/D/) EGG G2 ||


